static/images/uploads/business-advisory--icon.svg

<svg height="62" viewBox="0 0 62 62" width="62" xmlns="http://www.w3.org/2000/svg"><g fill="none" fill-rule="evenodd" stroke="#fff" transform="translate(1 1)"><path d="m9.47312079 40.8826921v.5051297c-.22225617 3.7500205-2.72438601 6.911277-6.31750305 8.6237884-.33338857.1471953-.53880807.4884045-.50849688.8496958.03031118.3612828.28287854.6657017.63646595.759373 3.44837164.7794466 7.05166139.5151664 10.34511489-.7627129 2.5761923-.9567524 4.8964291-2.4854837 6.7856195-4.4692976.2087903-.2174445.5152385-.3111073.8115829-.2475464 2.5963652.5820757 5.2499734.8697437 7.9137543.8563841 16.0702739 0 29.0956357-10.5241049 29.0956357-23.5171653 0-12.989635-13.0693285-23.4803409-29.1396024-23.4803409-16.070274 0-29.09563575 10.5241049-29.09563575 23.5137398-.00336216 1.3782647.14480575 2.7497639.44115019 4.094544.24246363 1.1206643.58258515 2.2178637 1.017011 3.2816641 1.70065069 3.9976012 4.47210697 7.4531969 8.01479158 9.9922903zm29.01804731-14.4985838c-3.2934535-4.5060365 1.7241859-9.5075769 6.2838815-6.2422698h.0033708c.0841833.0602124.1616424.1371585.2222561.2207844 3.2934536 4.5060366-1.7241858 9.507577-6.2838814 6.2422698v.0033485c-.0875542-.0635609-.1616424-.1404984-.225627-.2241329zm-12.9313936 0c-3.2934536-4.5060365 1.7241858-9.5075769 6.2838814-6.2422698h.0033708c.0841834.0602124.1616424.1371585.2222562.2207844 3.2934535 4.5060366-1.7241858 9.507577-6.2838815 6.2422698v.0033485c-.0875541-.0635609-.1616424-.1404984-.2256269-.2241329zm-12.9313937 0c-3.2934535-4.5060365 1.7241859-9.5075769 6.2838815-6.2422698h.0033708c.0841833.0602124.1616424.1371585.2222561.2207844 3.2934536 4.5060366-1.7241858 9.507577-6.2838814 6.2422698v.0033485c-.0875542-.0635609-.1616424-.1404984-.225627-.2241329z"/><path d="m57.0488475 37.0588235c1.8637224 2.0284418 2.9131256 4.6671132 2.9495661 7.4146246.0132373.7553186-.0562794 1.507378-.2118636 2.246206-.1357284.6068944-.3211091 1.2039097-.5495236 1.7811243-.9235561 2.1735898-2.426517 4.0503818-4.3498155 5.4290771v.2770563.0033015c.1357283 1.7382301 1.0957589 3.3049677 2.5854148 4.2218743.287999.2011977.4204138.554121.3343463.8938553-.0827624.3364327-.3674479.5904037-.7150399.6332811-2.9528712.2671687-5.8726069-.7882999-7.9647183-2.8794872-.2052451-.2077922-.5031762-.2968484-.7911753-.2374804-1.3373682.2902539-2.7045669.4353766-4.0750707.4320835-6.2963342 0-11.7389426-2.9982063-14.2609678-7.3289205" stroke-linecap="round" stroke-linejoin="round"/></g></svg>

<?xml version="1.0" encoding="UTF-8"?>
<svg width="62px" height="62px" viewBox="0 0 62 62" version="1.1" xmlns="http://www.w3.org/2000/svg" xmlns:xlink="http://www.w3.org/1999/xlink">
    <!-- Generator: Sketch 49.1 (51147) - http://www.bohemiancoding.com/sketch -->
    <title>Group</title>
    <desc>Created with Sketch.</desc>
    <defs></defs>
    <g id="Design" stroke="none" stroke-width="1" fill="none" fill-rule="evenodd">
        <g id="HOME-V4" transform="translate(-689.000000, -1401.000000)" stroke="#FFFFFF">
            <g id="Group" transform="translate(690.000000, 1402.000000)">
                <path d="M9.47312079,40.8826921 L9.47312079,41.3878218 C9.25086462,45.1378423 6.74873478,48.2990988 3.15561774,50.0116102 C2.82222917,50.1588055 2.61680967,50.5000147 2.64712086,50.861306 C2.67743204,51.2225888 2.9299994,51.5270077 3.28358681,51.620679 C6.73195845,52.4001256 10.3352482,52.1358454 13.6287017,50.8579661 C16.204894,49.9012137 18.5251308,48.3724824 20.4143212,46.3886685 C20.6231115,46.171224 20.9295597,46.0775612 21.2259041,46.1411221 C23.8222693,46.7231978 26.4758775,47.0108658 29.1396584,46.9975062 C45.2099323,46.9975062 58.2352941,36.4734013 58.2352941,23.4803409 C58.2352941,10.4907059 45.1659656,0 29.0956917,0 C13.0254177,0 5.59545422e-05,10.5241049 5.59545422e-05,23.5137398 C-0.00330620781,24.8920045 0.144861701,26.2635037 0.441206138,27.6082838 C0.683669769,28.7289481 1.02379129,29.8261475 1.45821714,30.8899479 C3.15886783,34.8875491 5.93032411,38.3431448 9.47300872,40.8822382 L9.47312079,40.8826921 Z M38.4911681,26.3841083 C35.1977146,21.8780718 40.215354,16.8765314 44.7750496,20.1418385 L44.7784204,20.1418385 C44.8626037,20.2020509 44.9400628,20.278997 45.0006765,20.3626229 C48.2941301,24.8686595 43.2764907,29.8701999 38.7167951,26.6048927 L38.7167951,26.6082412 C38.6292409,26.5446803 38.5551527,26.4677428 38.4911681,26.3841083 Z M25.5597745,26.3841083 C22.2663209,21.8780718 27.2839603,16.8765314 31.8436559,20.1418385 L31.8470267,20.1418385 C31.9312101,20.2020509 32.0086691,20.278997 32.0692829,20.3626229 C35.3627364,24.8686595 30.3450971,29.8701999 25.7854014,26.6048927 L25.7854014,26.6082412 C25.6978473,26.5446803 25.623759,26.4677428 25.5597745,26.3841083 Z M12.6283808,26.3841083 C9.3349273,21.8780718 14.3525667,16.8765314 18.9122623,20.1418385 L18.9156331,20.1418385 C18.9998164,20.2020509 19.0772755,20.278997 19.1378892,20.3626229 C22.4313428,24.8686595 17.4137034,29.8701999 12.8540078,26.6048927 L12.8540078,26.6082412 C12.7664536,26.5446803 12.6923654,26.4677428 12.6283808,26.3841083 Z" id="Stroke-1"></path>
                <path d="M57.0488475,37.0588235 C58.9125699,39.0872653 59.9619731,41.7259367 59.9984136,44.4734481 C60.0116509,45.2287667 59.9421342,45.9808261 59.78655,46.7196541 C59.6508216,47.3265485 59.4654409,47.9235638 59.2370264,48.5007784 C58.3134703,50.6743682 56.8105094,52.5511602 54.8872109,53.9298555 L54.8872109,54.2069118 L54.8872109,54.2102133 C55.0229392,55.9484434 55.9829698,57.515181 57.4726257,58.4320876 C57.7606247,58.6332853 57.8930395,58.9862086 57.806972,59.3259429 C57.7242096,59.6623756 57.4395241,59.9163466 57.0919321,59.959224 C54.1390609,60.2263927 51.2193252,59.1709241 49.1272138,57.0797368 C48.9219687,56.8719446 48.6240376,56.7828884 48.3360385,56.8422564 C46.9986703,57.1325103 45.6314716,57.277633 44.2609678,57.2743399 C37.9646336,57.2743399 32.5220252,54.2761336 30,49.9454194" id="Stroke-2" stroke-linecap="round" stroke-linejoin="round"></path>
            </g>
        </g>
    </g>
</svg>
